X:1
T:James Gibb editions
T:Omnis mundus jocundetur - Praetorius
T:#
%%score [ ( 1 2 ) ( 3 4 ) ]
L:1/8
Q:1/4=160
M:3/2
K:F
V:1 treble nm="Midi_75"
V:2 treble 
V:3 bass nm="Midi_75"
V:4 bass 
V:1
"^Omnis mundus jocundetur" F8 A4 | c8 c4 |[M:4/2] B4 d4 c4 A4 | c4 B4 A4 F4 |[M:3/2] G4 F8 | %5
w: |||||
 F8 A4 | c8"^Michael Praetorius\n(1571-1621)" c4 |[M:4/2][Q:1/4=220][Q:1/4=220] B4 d4 c4 A4 | %8
w: |||
 c4 B4 A4 F4 |[M:3/2] G4 F8 |[M:4/2] F2 G2 A4 B2 G2 A4 |[M:4/2] F2 G2 A4 B2 G2 A4 | %12
w: ||||
[M:3/2] z4 c2 d2 c2 A2 |[M:4/2] c2 B2 A2 F2 A2 B2 c4 | F2 G2 A4 B2 G2 A4 |[M:3/2] z4 c2 d2 c2 A2 | %16
w: ||||
[M:4/2] c2 B2 A2 F2 A2 B2 c4 | F2 G2 A4 B2 G2 A4 |[M:3/2] z4 c2 d2 (c2 A2) | %19
w: |||
[M:4/2] c2 B2 A2 F2 A2 B2 c4 | F2 G2 c4 B2 G2 A4 |[M:3/2] z4 c2 d2 c2 A2 | %22
w: |||
[M:4/2] c2 B2 A2 F2 A2 B2 c4 | F2 G2 A4 B2 G2 A4 | c2 d2 c2 A2 c2 B2 A2 F2 |[M:3/2] A4 B4 c4- | %26
w: |||ho- di- e.|
[M:4/2] c8 c8 |] %27
w: |
V:2
 C8 C4 | E8 E4 |[M:4/2] D4 F4 E4 D4 | E4 D4 C4 D4 |[M:3/2] G,4 C8 | C8 C4 | E8 E4 | %7
w: Om- nis|mun- dus|jo- cun- de- tur|na- to Sal- va-|to- re,|Cas- ta|ma- ter|
[M:4/2] D4 F4 E4 D4 | E4 D4 C4 D4 |[M:3/2] G,4 C8 |[M:4/2] B,2 B,2 F4 F2 E2 F4 | %11
w: quem con- ce- pit|Ga- bri- e- lis|o- re.|So- no- ris vo- ci- bus,|
[M:4/2] D2 B,2 F4 F2 E2 C4 |[M:3/2] z4 E2 D2 E2 D2 |[M:4/2] E2 D2 C2 D2 E2 G2 E4 | %14
w: sin- ce- ris men- ti- bus,|Ex- ul- te- mus|et lae- te- mur ho- di- e,|
 D2 D2 E4 G2 E2 C4 |[M:3/2] z4 E2 D2 E2 D2 |[M:4/2] E2 D2 C2 D2 E2 G2 E4 | D2 D2 E4 G2 E2 F4 | %18
w: ho- di- e, ho- di- e,|Christ- us na- tus|ex Ma- ri- a Vir- gi- ne,|Vir- gi- ne, Vir- gi- ne,|
[M:3/2] z4 E2 G2 (E2 F2) |[M:4/2] G2 G2 C2 D2 C2 D2 E4 | D2 E2 F4 D2 E2 ^F4 | %21
w: ex~ Ma- ri\- *|a, Ma- ri- a Vir- gi- ne,|gau- de- te, gau- de- te,|
[M:3/2] z4 E2 D2 G2 C2 |[M:4/2] C2 G2 F2 D2 C2 D2 E4 | D2 D2 F4 F2 E2 F4 | %24
w: Gau- de a- mus|et lae- te- tur i- ta- que,|i- ta- que, i- ta- que,|
 F2 F2 E2 D2 E2 G2 F2 D2 |[M:3/2] C4 D4 E2 (F2- |[M:4/2] F2 ED E2) E2 F8 |] %27
w: Chris- tus na- tus, Chris- tus na- tus|ho- di- e, ho\-|* * * * di- e.|
V:3
 A,8 A,4 | G,8 A,4 |[M:4/2] F,6 B,2 G,4 F,4 | A,4 F,4 A,4 A,4 |[M:3/2] E,4 A,8 | A,8 A,4 | %6
w: ||||||
 G,8 A,4 |[M:4/2] F,6 B,2 G,4 F,4 | A,4 F,4 A,4 A,4 |[M:3/2] E,4 A,8 |[M:4/2] D2 D2 D4 D2 C2 C4 | %11
w: |||||
[M:4/2] B,2 D2 D4 D2 C2 A,4 |[M:3/2] z4 G,2 B,2 G,2 F,2 |[M:4/2] A,2 F,2 F,2 F,2 C2 D2 C4 | %14
w: |||
 A,2 B,2 C4 D2 C2 A,4 |[M:3/2] z4 G,2 B,2 G,2 F,2 |[M:4/2] A,2 F,2 F,2 F,2 C2 D2 C4 | %17
w: |||
 A,2 B,2 C4 D2 C2 C4 |[M:3/2] z4 C2 B,2 C4- |[M:4/2] C2 D2 A,2 B,2 A,2 F,2 G,4 | %20
w: |||
 D2 B,2 A,4 B,2 C2 A,4 |[M:3/2] z4 A,2 F,2 E,2 A,2 |[M:4/2] A,2 D2 D2 A,2 A,2 F,2 A,4 | %23
w: |||
 D,2 B,2 A,4 D2 C2 C4 | A,2 B,2 G,2 F,2 A,2 D2 D2 A,2 |[M:3/2] A,4 F,4 G,2 A,2 |[M:4/2] G,8 A,8 |] %27
w: ||* * * ho-|di- e.|
V:4
 F,,8 F,4 | C,8 A,,4 |[M:4/2] B,,4 B,,4 C,4 D,4 | A,,4 B,,4 F,4 D,4 |[M:3/2] C,4 F,,8 | F,,8 F,4 | %6
 C,8 A,,4 |[M:4/2] B,,4 B,,4 C,4 D,4 | A,,4 B,,4 F,4 D,4 |[M:3/2] C,4 F,,8 | %10
[M:4/2] B,,2 G,,2 D,4 B,,2 C,2 F,,4 |[M:4/2] B,,2 G,,2 D,4 B,,2 C,2 F,4 | %12
[M:3/2] z4 C,2 G,,2 C,2 D,2 |[M:4/2] A,,2 B,,2 F,,2 B,,2 A,,2 G,,2 C,4 | %14
 D,2 B,,2 A,,4 G,,2 C,2 F,4 |[M:3/2] z4 C,2 G,,2 C,2 D,2 | %16
[M:4/2] A,,2 B,,2 F,,2 B,,2 A,,2 G,,2 C,4 | D,2 B,,2 A,,4 G,,2 C,2 F,4 | %18
[M:3/2] z4 A,2 B,2 (A,2 F,2) |[M:4/2] E,2 G,2 F,2 D,2 F,2 D,2 C,4 | B,2 G,2 F,4 G,2 E,2 D,4 | %21
[M:3/2] z4 A,,2 B,,2 C,2 F,2 |[M:4/2] F,,2 G,,2 D,2 D,2 F,2 D,2 A,,4 | B,,2 G,,2 D,4 B,,2 C,2 F,4 | %24
 F,2 B,,2 C,2 D,2 A,,2 G,,2 D,2 D,2 |[M:3/2] F,4 D,4 C,2 F,,2 |[M:4/2] C,8 F,,8 |] %27

